!!!COM: Compositor :Percy Avila
!!!OTL: Mi Corazon es Cochabamba
**kern
*I"Guitarra acústica
*I'Guit. ac.
!!pagebreak:original
*clefG2
*Trd0c0
*k[]
*C:
*M6/8
=1
!LO:TX:t=[quarter]=120
4.r
8r
4gg
=2
4.gg
8r
16ggLL
16bb-X
16aa
16ggJJ
=3
4.ff
8r
16eeLL
16ff
16ee
16dd#XJJ
=4
8.eeL
16ddnk
8cc#XJ
8ddL
8ccn
8b-XJ
=5
4.cc
8r
16ggLL
16bb-X
16aa
16gg#XJJ
=6
4.ggn
8r
16eeLL
16ff
16ee
16dd#XJJ
!!linebreak:original
=7
8.eeL
16eek
8eeJ
8ee
4ddn
=8
4.cc
8r
4g#X
=9
4.cc
8r
4g#X
=10
8aL
8b-X
8ccJ
8ddL
8dd#X
8eeJ
=11
4.aa
4gg
8ff#X
=12
4ee
8ee
8aaL
8gg#X
(8aaJ
=13
8aaL)
8ggn
8aaJ
8ff#X
4aa
!!linebreak:original
=14
(4.ee
4ee)
8r
=15
4.aa
4gg
8ff#X
=16
4ee
8ee
8ggL
8ff#X
(8eeJ
=17
8eeL)
8ee
8eeJ
8ee
4dd
=18
(4.cc
4cc)
8r
=19
4.aa
4gg
8ff#X
=20
4ee
8ee
8ggL
8ff#X
(8eeJ
!!linebreak:original
=21
8eeL)
8ee
8eeJ
8ee
4dd
=22
(4.cc
4cc)
8r
=23
4.aa
4gg
8ff#X
=24
4ee
8ee
8aaL
8gg#X
(8aaJ
=25
8aaL)
8ggn
8ggJ
8ff#X
4aa
=26
(4.ee
4ee)
8r
=27
4cc 4ee
8cc 8ee
8ccL 8gg
8cc 8ff#X
((8ccJ 8ee
!!linebreak:original
=28
8ccL 8ee))
8ee
8eeJ
8ee
4dd
=29
(4.cc
4cc)
8r
=30
4.ff 4.aa
4dd 4gg
8dd 8ff#X
=31
4cc 4ee
8cc 8ee
8ccL 8gg
8cc 8ff#X
((8ccJ 8ee
=32
8ccL 8ee))
8ee
8eeJ
8ee
4dd
=33
(4.cc
4cc)
8r
=34
8eeL
8ee
8eeJ
8aaL
8aa
8gg#XJ
!!linebreak:original
=35
4.aa
4ff
8r
=36
8aaL
8ccc
8bbJ
8aaL
8gg
(8aaJ
=37
8aa)
(4.gg
8gg)
8r
=38
4.aa
4gg
8ff#X
=39
4ee
8ee
8ggL
8ff#X
(8eeJ
=40
8eeL)
8ee
8eeJ
8ee
4dd
=41
(4.cc
4cc)
8r
!!linebreak:original
=42
4.aa
4gg
8ff#X
=43
4ee
8ee
8ggL
8ff#X
(8eeJ
=44
8eeL)
8ee
8eeJ
8ee
4dd
=45
(4.cc
4cc)
8r
=46
4.aaa
4ggg
8fff#X
=47
4eee
8eee
8aaaL
8ggg#X
(8aaaJ
=48
8aaaL)
8gggn
8gggJ
8fff#X
4aaa
!!linebreak:original
=49
(4.eee
4eee)
8r
=50
4.aaa
4ggg
8fff#X
=51
4eee
8eee
8gggL
8fff#X
(8eeeJ
=52
8eeeL)
8eee
8eeeJ
8eee
4ddd
=53
(4.ccc
4ccc)
8r
!!pagebreak:original
=54
4.aa
4gg
8ff#X
=55
4ee
8ee
8ggL
8ff#X
(8eeJ
=56
8eeL)
8ee
8eeJ
8ee
4dd
=57
(4.cc
4cc)
8r
==
*-